X: 690
T: Ag Damhsa Ar Na Bóithre
R: reel
M: 4/4
K: Gmajor
|:g2 e2 e2 fg|fd B2 B2 Bd|e2 ef gage|f2 d2 d4|
g2 e2 e2 fg|fd B2 B2 Bd|e2 ef gage|f2 d2 d4|
gf e2 efga|gfec d2 de|d2 de d2 de|dc B2 A4|
gf e2 efga|gfec d2 de|d2 de d2 de|dc B2 A4:|

